apps/statesvisited/state-images/NY.svg

<svg height="635" width="1182" xmlns="http://www.w3.org/2000/svg"><path d="m844.72552 193.58614 16.3332 8.01808-1.1879 5.04843s3.8606-2.96967 7.4242-4.15753 8.9089-1.7818 10.6907-2.96966c1.7818-1.18787 9.7999-6.23629 9.7999-7.72112s.594-3.26663.594-3.26663-11.2848 3.26663-12.7696 4.75146-7.7211 7.72112-9.5029 6.23629-5.3454-2.6727-5.3454-4.15753-1.1879-19.3028-.8909-23.16336.297-16.6301 0-17.81797c-.297-1.18786-3.5636-9.79988-4.1575-10.98774-.594-1.18787-3.5636-4.15753-4.1575-5.93933-.594-1.78179-2.0788-12.47257-2.3758-15.44223-.2969-2.96967-2.0787-5.93933-2.0787-5.93933l-23.4604 5.04843s-.8909 3.26662-3.8605 6.23629c-2.9697 2.96966-5.6424 5.93932-6.2363 11.28471s.8909 10.09685-2.3757 15.7392c-3.2667 5.64236-.8909 7.72112-5.9394 7.72112-5.0484 0-16.927 1.48484-18.4119 1.48484-1.4848 0-4.7514-1.48484-8.018.29696-3.2667 1.7818-8.0181 4.45449-7.1272 6.83022s4.1575 5.04843 4.1575 5.04843l-3.8606 9.20595s-7.1272 3.86056-6.8302 6.23629 5.6424 2.96966 8.0181 2.67269c2.3757-.29696 51.3751-9.50291 51.3751-9.50291s7.1272-3.86056 10.0969-1.48484c2.9696 2.37573 4.1575 4.75146 5.6423 6.23629 1.4849 1.48483 5.3454 4.4545 4.4545 4.4545z" fill="#ed553b" fill-rule="evenodd" opacity=".9" stroke="#000"/></svg>

<?xml version="1.0" encoding="UTF-8" standalone="no"?>
<!-- Created with Inkscape (http://www.inkscape.org/) -->
<svg
   xmlns:dc="http://purl.org/dc/elements/1.1/"
   xmlns:cc="http://web.resource.org/cc/"
   xmlns:rdf="http://www.w3.org/1999/02/22-rdf-syntax-ns#"
   xmlns:svg="http://www.w3.org/2000/svg"
   xmlns="http://www.w3.org/2000/svg"
   xmlns:xlink="http://www.w3.org/1999/xlink"
   xmlns:sodipodi="http://sodipodi.sourceforge.net/DTD/sodipodi-0.dtd"
   xmlns:inkscape="http://www.inkscape.org/namespaces/inkscape"
   id="svg1923"
   sodipodi:version="0.32"
   inkscape:version="0.44"
   width="1182"
   height="635"
   version="1.0"
   sodipodi:docbase="/Users/amyshore/Desktop"
   sodipodi:docname="usa.svg">
  <metadata
     id="metadata1928">
    <rdf:RDF>
      <cc:Work
         rdf:about="">
        <dc:format>image/svg+xml</dc:format>
        <dc:type
           rdf:resource="http://purl.org/dc/dcmitype/StillImage" />
      </cc:Work>
    </rdf:RDF>
  </metadata>
  <defs
     id="defs1926" />
  <sodipodi:namedview
     inkscape:window-height="752"
     inkscape:window-width="1280"
     inkscape:pageshadow="2"
     inkscape:pageopacity="0.0"
     guidetolerance="10.0"
     gridtolerance="10.0"
     objecttolerance="10.0"
     borderopacity="1.0"
     bordercolor="#666666"
     pagecolor="#ffffff"
     id="base"
     inkscape:zoom="0.59527559"
     inkscape:cx="775.234"
     inkscape:cy="319.32597"
     inkscape:window-x="0"
     inkscape:window-y="22"
     inkscape:current-layer="layer2" />
  <g
     inkscape:groupmode="layer"
     id="layer1"
     inkscape:label="bg"
     style="opacity:1;display:none"
     sodipodi:insensitive="true">
    <image
       xlink:href="ElectoralCollege1996-Large.png"
       sodipodi:absref="/Users/amyshore/Desktop/ElectoralCollege1996-Large.png"
       width="1182"
       height="635"
       id="image1930"
       x="-1.3571358"
       y="1.6798911" />
  </g>
  <g
     inkscape:groupmode="layer"
     id="layer2"
     inkscape:label="vector"
     style="opacity:0.9;display:inline"> <path style="fill:#ed553b;fill-opacity:1;fill-rule:evenodd;stroke:black;stroke-width:1px;stroke-linecap:butt;stroke-linejoin:miter;stroke-opacity:1" d="M 844.72552,193.58614 L 861.05872,201.60422 L 859.87082,206.65265 C 859.87082,206.65265 863.73142,203.68298 867.29502,202.49512 C 870.85862,201.30726 876.20392,200.71332 877.98572,199.52546 C 879.76752,198.33759 887.78562,193.28917 887.78562,191.80434 C 887.78562,190.31951 888.37962,188.53771 888.37962,188.53771 C 888.37962,188.53771 877.09482,191.80434 875.61002,193.28917 C 874.12522,194.774 867.88892,201.01029 866.10712,199.52546 C 864.32532,198.04063 860.76172,196.85276 860.76172,195.36793 C 860.76172,193.8831 859.57382,176.06513 859.87082,172.20457 C 860.16782,168.34401 860.16782,155.57447 859.87082,154.3866 C 859.57382,153.19874 856.30722,144.58672 855.71332,143.39886 C 855.11932,142.21099 852.14972,139.24133 851.55582,137.45953 C 850.96182,135.67774 849.47702,124.98696 849.18002,122.0173 C 848.88312,119.04763 847.10132,116.07797 847.10132,116.07797 L 823.64092,121.1264 C 823.64092,121.1264 822.75002,124.39302 819.78042,127.36269 C 816.81072,130.33235 814.13802,133.30201 813.54412,138.6474 C 812.95022,143.99279 814.43502,148.74425 811.16842,154.3866 C 807.90172,160.02896 810.27752,162.10772 805.22902,162.10772 C 800.18062,162.10772 788.30202,163.59256 786.81712,163.59256 C 785.33232,163.59256 782.06572,162.10772 778.79912,163.88952 C 775.53242,165.67132 770.78102,168.34401 771.67192,170.71974 C 772.56282,173.09547 775.82942,175.76817 775.82942,175.76817 L 771.96882,184.97412 C 771.96882,184.97412 764.84162,188.83468 765.13862,191.21041 C 765.43562,193.58614 770.78102,194.18007 773.15672,193.8831 C 775.53242,193.58614 824.53182,184.38019 824.53182,184.38019 C 824.53182,184.38019 831.65902,180.51963 834.62872,182.89535 C 837.59832,185.27108 838.78622,187.64681 840.27102,189.13164 C 841.75592,190.61647 845.61642,193.58614 844.72552,193.58614 z " id="path11693" />   </g>
</svg>
